X: 8
T:Foliada de Tenorio
M:3/4
L:1/8
Q:270
C:Trad
S:Rep. "Os Soutelo de Montes"
R:Foliada
B:Leccións de Gaita. OTERO COVELO
K:CMin
C=B, CD |: E2D2C2 | F2E2D2| C2DC =B,2- |
=B,2 DCDE | F2E2D2 | G2F2E2 | D2 ED C2- |1 C2 C=B,CD :|2 
C4 C2 |: E4 D2 | E2 G2 F2 | E2FE D2- | D4 D2 |
D4 C2 | =B,2D2E2 | D2ED C2- |1 C4 "3 veces"C2 :|2 C2 ||

